X:1
T:The Lord Is My Shepherd
T:The Lord Is My Shepherd
T:Mary E. Upham Currier
T:Leonard Weaver, 1894
T:Public Domain Courtesy of the Cyber Hymnal™
T:Public Domain Courtesy of the Cyber Hymnal™
C:Mary E. Upham Currier
Z:Public Domain
Z:Courtesy of the Cyber Hymnal™
%%score ( 1 2 ) ( 3 4 )
L:1/8
Q:1/4=106
M:6/8
K:G
V:1 treble 
V:2 treble 
V:3 bass 
V:4 bass 
V:1
 ([B,D]2 [B,D]) [DG]2 [DA] | [DB]3 [DB]3 | [EA]2 [EG] ([EG][DF])[CE] | [B,D]3- [B,D]2 z | %4
w: 1.~I * have a|shep- herd,|one I love * so|well; *|
w: 2.~Pas- * tures a-|bun- dant|doth His hand * pro-|vide, *|
w: 3.~When * I would|wan- der|from the path * a-|stray, *|
w: 4.~When~the * work is|o- ver|and the jour- * ney|done, *|
 [CE]2 [DF] [EG]2 [CE] | ([B,D]3 [B,G]3) [DB]2 [DA] [^CA]2 [CG] | [DA]3- [DA]2 z | %7
w: What He is to|me * tongue can ne- ver|tell; *|
w: Still wa- ters flow-|ing * ev- er at my|side; *|
w: Then He doth draw|me * back in- to the|way; *|
w: Then He will lead|me * safe- ly to my|home; *|
 [B,D]2 [B,D] [DG]2 [DA] | [DB]3 [DB]3 | [EA]2 [EG] ([EG][DF])[CE] | [B,D]3- [B,D]2 z | %11
w: On the cross He|suf- fered,|shed His blood, * and|died, *|
w: Go- od- ness and|mer- cy|fol- low on * my|track; *|
w: In the dark- est|val- ley|I need fear * no|ill, *|
w: There I shall dwell|in rap-|ture pure and * sweet,|And *|
 ([CE]2 [DF]) [EG]2 [CE] | ([B,D]2 [DG]) [DB]3 | [DB]2 D [DA]2 [CD] | [B,G]3- [B,G]2 z || %15
w: That * I might|ev- * er|in His love con-|fide. *|
w: With * such a|shep- * herd|no- thing can I|lack. *|
w: For * He my|shep- * herd|will be with me|still. *|
w: with * all the|loved * ones|ga- ther at His|feet. *|
"^Refrain" [DB]3 [GB]2 [GB] | [GB]3 [=FB]3 | [Ec]2 [Ec] G2 [GA] | [GB]3- [GB]2 z | %19
w: ||||
w: Fol- low- ing|Je- sus|ev- er day by|day, *|
w: ||||
w: ||||
 [Gd]3 [Ge]2 [Gd] | [Gd]2 [GB] G2 [FA] | [GB]3 [DA]2 [^CG] | [DA]6 | [DB]3 [GB]2 [GB] | %24
w: |||||
w: No- thing have|I to fear when|He leads the|way;|Dark- ness or|
w: |||||
w: |||||
 [GB]3 [=FB]3 | ([Ec]2 [Ec]) G2 [GA] | [GB]3- [GB]2 z | [Gd]3 [Ge]2 [Gd] | [Gd]2 [GB] [DG]2 [EA] | %29
w: |||||
w: sun- shine,|what- * e’er be-|fall, *|Je- sus the|Sav- ior is my|
w: |||||
w: |||||
 [GB]3 [FA]3 | [DG]6 |] %31
w: ||
w: all in|all.|
w: ||
w: ||
V:2
 x6 | x6 | x6 | x6 | x6 | x12 | x6 | x6 | x6 | x6 | x6 | x6 | x6 | x2 D x3 | x6 || x6 | x6 | %17
 x3 G2 x | x6 | x6 | x3 G2 x | x6 | x6 | x6 | x6 | x3 G2 x | x6 | x6 | x6 | x6 | x6 |] %31
V:3
 ([G,,G,]2 [G,,G,]) [B,,G,]2 [D,F,] | G,3 G,3 | [C,G,]2 [C,C] [C,C]2 [C,G,] | %3
 [G,,G,]3- [G,,G,]2 z | [C,G,]2 [C,G,] [C,G,]2 [C,G,] | %5
 [G,,G,]3- [G,,G,]3 G,2 [F,A,] [E,A,]2 [A,,A,] | [D,F,]3- [D,F,]2 z | %7
 [G,,G,]2 [G,,G,] [B,,G,]2 [D,F,] | G,3 G,3 | [C,G,]2 [C,C] [C,C]2 [C,G,] | [G,,G,]3- [G,,G,]2 z | %11
 ([C,G,]2 [C,G,]) [C,G,]2 [C,G,] | (G,2 B,) G,3 | [D,G,]2 [D,F,] [D,F,]2 [D,F,] | %14
 [G,,G,]3- [G,,G,]2 z || [G,,G,]3 [B,,D]2 [D,D] | [G,D]3 [G,D]3 | [C,C]2 [C,C] [C,E]2 [C,E] | %18
 [G,D]3- [G,D]2 z | [G,B,]3 [G,C]2 [G,B,] | [G,B,]2 [G,D] [B,D]2 [A,D] | [G,D]3 [F,A,]2 [E,A,] | %22
 F,6 | [G,,G,]3 [B,,D]2 [D,D] | [G,D]3 [G,D]3 | ([C,C]2 [C,C]) [C,E]2 [C,E] | [G,D]3- [G,D]2 z | %27
 [G,B,]3 [G,C]2 [G,B,] | [G,B,]2 [G,D] [B,,D]2 [C,C] | [D,B,]3 [D,C]3 | [G,B,]6 |] %31
V:4
 x6 | G,3 G,3 | x6 | x6 | x6 | x6 G,2 x4 | x6 | x6 | G,3 G,3 | x6 | x6 | x6 | G,3 G,3 | x6 | x6 || %15
 x6 | x6 | x6 | x6 | x6 | x6 | x6 | (D,2 =C, B,,2 A,,) | x6 | x6 | x6 | x6 | x6 | x6 | x6 | x6 |] %31

